X: 17541
T: Hillsdale Road
R: jig
M: 6/8
K: Amajor
F|ECA, DFA|EAc ecA|{e}dcd efg|aec BAF|
ECA, DFA|EAc ecA|{e}dcd fdB|ecA A2:|
e|aec Ace|fdf ecA|aec Ace|f^dB bge|
aec Ace|fdf ecA|DAc fdB|ecA A2:|

